packages/design-assets/icons/16px/Grid.svg

<svg width="16" height="16" xmlns="http://www.w3.org/2000/svg"><path d="M0 0h4v4H0V0zm6 0h4v4H6V0zm6 0h4v4h-4V0zM0 6h4v4H0V6zm6 0h4v4H6V6zm6 0h4v4h-4V6zM0 12h4v4H0v-4zm6 0h4v4H6v-4zm6 0h4v4h-4v-4z" fill="#818F99" fill-rule="evenodd"/></svg>

<?xml version="1.0" encoding="UTF-8"?>
<svg width="16px" height="16px" viewBox="0 0 16 16" version="1.1" xmlns="http://www.w3.org/2000/svg" xmlns:xlink="http://www.w3.org/1999/xlink">
    <!-- Generator: Sketch 54.1 (76490) - https://sketchapp.com -->
    <title>Icons/16px/Grid</title>
    <desc>Created with Sketch.</desc>
    <g id="Icons/16px/Grid" stroke="none" stroke-width="1" fill="none" fill-rule="evenodd">
        <path d="M0,0 L4,0 L4,4 L0,4 L0,0 Z M6,0 L10,0 L10,4 L6,4 L6,0 Z M12,0 L16,0 L16,4 L12,4 L12,0 Z M0,6 L4,6 L4,10 L0,10 L0,6 Z M6,6 L10,6 L10,10 L6,10 L6,6 Z M12,6 L16,6 L16,10 L12,10 L12,6 Z M0,12 L4,12 L4,16 L0,16 L0,12 Z M6,12 L10,12 L10,16 L6,16 L6,12 Z M12,12 L16,12 L16,16 L12,16 L12,12 Z" id="i-16-grid" fill="#818F99"></path>
    </g>
</svg>
